src/assets/outline/ArrowDown1.svg

<svg width="24" height="24" viewBox="0 0 24 24"  xmlns="http://www.w3.org/2000/svg">
<path d="M12 16.7999C11.3 16.7999 10.6 16.5299 10.07 15.9999L3.55002 9.47989C3.26002 9.18989 3.26002 8.70989 3.55002 8.41989C3.84002 8.12989 4.32002 8.12989 4.61002 8.41989L11.13 14.9399C11.61 15.4199 12.39 15.4199 12.87 14.9399L19.39 8.41989C19.68 8.12989 20.16 8.12989 20.45 8.41989C20.74 8.70989 20.74 9.18989 20.45 9.47989L13.93 15.9999C13.4 16.5299 12.7 16.7999 12 16.7999Z" />
</svg>

<?xml version="1.0" encoding="UTF-8"?>
<svg width="24" height="24" viewBox="0 0 24 24" xmlns="http://www.w3.org/2000/svg">
 <path d="m12 16.8c-0.7 0-1.4-0.27-1.93-0.8l-6.52-6.52c-0.29-0.29-0.29-0.77 0-1.06s0.77-0.29 1.06 0l6.52 6.52c0.48 0.48 1.26 0.48 1.74 0l6.52-6.52c0.29-0.29 0.77-0.29 1.06 0s0.29 0.77 0 1.06l-6.52 6.52c-0.53 0.53-1.23 0.8-1.93 0.8z"/>
</svg>
